X: 270
U:~=!turn!
M:6/8
L:1/8
K:G
b/a/ | {/f}g2 d edB | {/^c}d2 d (dba) | {/f}g2 d edB | {cB}A2 A (Aba) | {/f}g2 d edB | {/^c}def gfe | {/^c}dec BcA | {/F}G2 G G2 :|


